images/Ecosystem/pumpstr.svg

<svg width="620" height="620" viewBox="0 0 620 620" fill="none" xmlns="http://www.w3.org/2000/svg">
<path d="M457.468 262.483C469.349 344.787 384.156 362.202 335.143 360.68C331.996 360.582 329.03 362.114 327.171 364.655C322.101 371.586 313.996 380.549 307.739 380.549C300.712 380.549 294.388 394.063 291.504 402.47C291.201 403.353 292.069 404.167 292.957 403.879C370.58 378.675 401.039 370.03 414.161 372.46C424.754 374.421 444.567 409.885 453.149 427.372C431.816 428.598 424.705 409.476 419.801 406.044C415.877 403.299 414.406 415.85 414.161 422.469C409.502 420.018 403.617 416.586 403.126 406.044C402.636 395.503 397.241 398.2 393.073 398.69C388.904 399.18 324.904 419.772 315.341 422.469C305.778 425.166 294.743 428.843 285.671 435.216C270.467 442.571 260.659 437.423 257.962 424.92C255.804 414.918 269.814 384.145 277.088 370.008C268.097 373.358 249.428 380.157 246.682 380.549C244.019 380.93 210.235 407.011 192.169 421.181C191.115 422.008 190.437 423.219 190.194 424.536C187.304 440.241 178.078 444.637 162.084 452.867C149.214 459.49 104.263 528.566 81.1495 565.856C79.5513 568.434 77.2056 570.416 74.6869 572.106C60.0054 581.962 45.053 607.044 38.9885 619.32C30.3571 594.413 41.6041 572.988 48.3065 565.388C45.364 562.839 38.5798 564.326 35.5556 565.388C43.8927 536.706 73.0728 536.706 72.0919 536.706C77.4866 532.048 140.751 441.59 142.222 437.423C143.682 433.289 141.28 413.957 173.077 403.358C173.582 403.189 174.083 402.959 174.53 402.672C199.302 386.75 217.885 361.084 224.123 350.151C191.05 347.877 153.177 329.438 133.375 317.595C129.106 315.042 124.579 312.82 119.636 312.261C92.5231 309.192 65.3757 326.536 54.4368 336.423C49.9249 330.148 55.0089 311.909 58.1149 303.574C47.1295 302.005 30.9783 317.956 24.2759 326.127C17.0176 314.753 23.3768 294.422 27.4636 285.678C12.9471 286.071 3.106 292.706 0 295.975C12.0153 206.497 103.921 232.52 104.95 233.708C100.046 228.609 100.455 221.941 101.272 219.244C156.935 220.715 182.927 211.4 199.356 201.839C328.828 129.522 384.613 173.893 405.211 185.047C425.808 196.201 463.203 200.736 489.073 190.44C519.969 176.467 515.318 140.449 509.057 126.702C502.192 111.626 463.448 90.7882 449.716 64.4356C435.985 38.0831 447.95 6.03652 463.858 1.56985C479.014 -2.68593 489.838 2.26516 498.145 9.7683C503.684 14.7705 519.234 18.3484 525.732 20.6772C532.23 23.0061 543.019 26.0704 542.406 27.909C541.793 29.7476 531.39 29.5022 529.778 29.5022C526.467 29.5022 522.544 29.9925 526.467 31.8311C531.068 33.6968 538.013 36.4085 541.338 38.1936C541.77 38.4256 541.681 39.03 541.207 39.1574C518.642 45.2302 498.494 32.6994 483.555 47.1526C468.352 61.8612 500.72 73.1378 517.395 90.7882C534.069 108.439 551.234 129.521 537.502 177.569C526.871 214.767 482.316 246.393 459.302 258.764C457.979 259.476 457.253 260.996 457.468 262.483Z" fill="#7B50C2"/>
</svg>

<svg xmlns="http://www.w3.org/2000/svg" width="620" height="620" fill="none" xmlns:v="https://vecta.io/nano"><path d="M457.468 262.483c11.881 82.304-73.312 99.719-122.325 98.197-3.147-.098-6.113 1.434-7.972 3.975-5.07 6.931-13.175 15.894-19.432 15.894-7.027 0-13.351 13.514-16.235 21.921-.303.883.565 1.697 1.453 1.409 77.623-25.204 108.082-33.849 121.204-31.419 10.593 1.961 30.406 37.425 38.988 54.912-21.333 1.226-28.444-17.896-33.348-21.328-3.924-2.745-5.395 9.806-5.64 16.425-4.659-2.451-10.544-5.883-11.035-16.425s-5.885-7.844-10.053-7.354-68.169 21.082-77.732 23.779-20.598 6.374-29.67 12.747c-15.204 7.355-25.012 2.207-27.709-10.296-2.158-10.002 11.852-40.775 19.126-54.912-8.991 3.35-27.66 10.149-30.406 10.541-2.663.381-36.447 26.462-54.513 40.632-1.054.827-1.732 2.038-1.975 3.355-2.89 15.705-12.116 20.101-28.11 28.331-12.87 6.623-57.821 75.699-80.934 112.989-1.598 2.578-3.944 4.56-6.463 6.25-14.681 9.856-29.634 34.938-35.698 47.214-8.631-24.907 2.616-46.332 9.318-53.932-2.943-2.549-9.727-1.062-12.751 0 8.337-28.682 37.517-28.682 36.536-28.682 5.395-4.658 68.659-95.116 70.13-99.283 1.46-4.134-.942-23.466 30.855-34.065a6.57 6.57 0 0 0 1.453-.686c24.772-15.922 43.355-41.588 49.593-52.521-33.073-2.274-70.946-20.713-90.748-32.556-4.269-2.553-8.796-4.775-13.739-5.334-27.113-3.069-54.26 14.275-65.199 24.162-4.512-6.275.572-24.514 3.678-32.849-10.985-1.569-27.137 14.382-33.839 22.553-7.258-11.374-.899-31.705 3.188-40.449-14.516.393-24.358 7.028-27.464 10.297 12.015-89.478 103.921-63.455 104.95-62.267-4.904-5.099-4.495-11.767-3.678-14.464 55.663 1.471 81.655-7.844 98.084-17.405 129.472-72.317 185.257-27.946 205.855-16.792s57.992 15.689 83.862 5.393c30.896-13.973 26.245-49.991 19.984-63.738-6.865-15.076-45.609-35.914-59.341-62.266S447.95 6.037 463.858 1.57c15.156-4.256 25.98.695 34.287 8.198 5.539 5.002 21.089 8.58 27.587 10.909s17.287 5.393 16.674 7.232-11.016 1.593-12.628 1.593c-3.311 0-7.234.49-3.311 2.329 4.601 1.866 11.546 4.577 14.871 6.363.432.232.343.836-.131.964-22.565 6.073-42.713-6.458-57.652 7.995-15.203 14.709 17.165 25.985 33.84 43.636s33.839 38.733 20.107 86.781c-10.631 37.198-55.186 68.824-78.2 81.195-1.323.712-2.049 2.232-1.834 3.719z" fill="#7b50c2"/></svg>
